img/main/icon-02.svg

<svg width="97" height="100" viewBox="0 0 97 100" fill="none" xmlns="http://www.w3.org/2000/svg">
<path d="M48.4755 50.1292C22.2442 50.1292 0.902832 71.5697 0.902832 97.9223C0.902832 99.0693 1.82953 100 2.97127 100C4.11302 100 5.03972 99.0693 5.03972 97.9223C5.03972 73.8595 24.5238 54.285 48.4756 54.285C72.4275 54.285 91.9116 73.8595 91.9116 97.9223C91.9116 99.0693 92.8383 100 93.98 100C95.1218 100 96.0485 99.0693 96.0485 97.9223C96.0483 71.5654 74.7067 50.1292 48.4755 50.1292Z" fill="#007A65"/>
<path d="M48.4782 0.000366211C35.9355 0.000366211 25.7261 10.253 25.7261 22.8579C25.7261 35.4629 35.9357 45.7155 48.4782 45.7155C61.0207 45.7155 71.2303 35.4629 71.2303 22.8579C71.2303 10.253 61.0209 0.000366211 48.4782 0.000366211ZM48.4782 41.5596C38.2149 41.5596 29.8628 33.1688 29.8628 22.8579C29.8628 12.5471 38.2149 4.15623 48.4782 4.15623C58.7415 4.15623 67.0936 12.5471 67.0936 22.8579C67.0936 33.1688 58.7415 41.5596 48.4782 41.5596Z" fill="#007A65"/>
</svg>

<svg width="97" height="100" fill="none" xmlns="http://www.w3.org/2000/svg"><path d="M48.475 50.13C22.245 50.13.903 71.57.903 97.921.903 99.07 1.83 100 2.97 100c1.142 0 2.069-.93 2.069-2.078 0-24.063 19.484-43.637 43.436-43.637 23.951 0 43.436 19.575 43.436 43.637 0 1.147.926 2.078 2.068 2.078s2.069-.93 2.069-2.078c0-26.357-21.342-47.793-47.574-47.793zM48.478 0C35.935 0 25.726 10.253 25.726 22.858s10.21 22.857 22.752 22.857c12.543 0 22.752-10.252 22.752-22.857C71.23 10.253 61.02 0 48.478 0zm0 41.56c-10.263 0-18.615-8.391-18.615-18.702 0-10.31 8.352-18.702 18.615-18.702 10.264 0 18.616 8.391 18.616 18.702 0 10.31-8.352 18.702-18.616 18.702z" fill="#007A65"/></svg>
